dist/svgs/ul-sort.svg

<svg xmlns="http://www.w3.org/2000/svg" viewBox="0 0 512 512"><path d="M0 416v-64h57v64H0zm0-129v-62h57v62H0zm0-127V96h57v64H0zm113 256v-64h241v64H113zm0-320h399v64H113V96zm0 191v-62h320v62H113z"/></svg>

<?xml version="1.0" encoding="UTF-8" standalone="no"?><svg   xmlns:svg="http://www.w3.org/2000/svg"   xmlns="http://www.w3.org/2000/svg"   version="1.1"   width="512"   height="512"   viewBox="0 0 512 512">  <path     d="M0 416V352H57V416H0zM0 287V225H57V287H0zM0 160V96H57V160H0zM113 416V352H354V416H113zM113 96H512V160H113V96zM113 287V225H433V287H113z"     id="ul-sort" /></svg>
